X: 370
T: Jiangjieshi zuie ge
L: 1/16
M: 2/4
K: F
c2 d c B2 G2 [I:setbarnb 1]| 
c2 d c B2 G2 | 
c2 d c B c B G | 
F G c2G4 | 
c2 d c B c B G | 
F G c2 G A G F | 
D2 G G F2 E D | 
C2> F2C4 | 
G B G F G B G F | 
d2> G2 F2 E D | 
C2> F2C4 |]

@@@ Tune index: 9244
